X:76
T:The Sure Way Back
R:air
C: 1994, 2010 L.E. McCullough 
M:4/4 
L:1/8
K:Amix
e|:a6 ba|g<e cd-d4-|d2 ef g<e-e2|ed c<A-A2 GF|
[1 G3 A/2G/2 E4-|E6 z e:|2 G4 F/2G/2 A3-|A4 z2 ef|]
|:ge-e4 ed|ge-e4 cd|ea-a4 (3gec|d6 cd|
[1 e<A-A4 cd|e<G-G4 EF|G6 F/2G/2|A6 e/2f/2:|
[2 e<g-g4 ed|e<G-G4 AB|=c6 BA/G/|A8|]
<end>
<start>
